X: 1
T: Jane's Thirtieth
C: Alastair Wood
N: For the Orwell Lodge Strathspey
R: strathspey
Z: 2013 John Chambers <jc:trillian.mit.edu>
M: C
L: 1/16
K: Bb
F2 |\
"Bb"d3c B3A "Eb"BE3 E3E | "Bb"D3F BABd "Cm"c4 "F7"c2Bc |\
"Gm"d3c "Eb"B3G "Bb"Ff3 "Cm"f3e | "Gm"d^cde "F7"=c3d "Bb"B4 B2 ||
AB |\
"Bb"d3c B3A "Eb"BE3 E3E | "Bb"D3F BABd "Cm"c4 "F7"c2Bc |\
"Gm"d3c "Eb"B3G "Bb"Ff3 "Cm"f3e | "Gm"d^cde "F7"=c3d "Bb"B4 B2 |]
A2 |\
"Gm"G3^F G3B "F"AF3 F4 | "Eb"EDEF G3E "D7"Dd3 d2cB |\
"Gm"Bb3 "Eb"b2ag "Bb"fb3 "Eb"g3e | "Gm"d^cde "F7"=c3d "Bb"B4 B3 ||
A |\
"Gm"G3^F G3B "F"AF3 F4 | "Eb"EDEF G3E "D7"Dd3 d2cB |\
"Gm"Bb3 "Eb"b2ag "Bb"fb3 "Eb"g3e | "Gm"d^cde "F7"=c3d "Bb"B4 B2 |]
